**harm	**harte	**silbe	**silbe	**rhyme	**timestamp	**phrase	**leadinstrument	**kern
*M4/4	*M4/4	*	*	*	*	*	*	*
*	*	*	*	*	*	*	*	*
*	*	*	*	*	*	*	*	*
*G:	*G:	*	*	*	*	*	*	*G:
*	*	*	*	*	*	*	*	*
*	*	*	*	*	*	*	*	*
1r;	N	.	.	.	0	.	r	1r;
=1	=1	=1	=1	=1	=1	=1	=1	=1
*>Letter>A	*>Letter>A	*>Letter>A	*>Letter>A	*>Letter>A	*>Letter>A	*>Letter>A	*>Letter>A	*>Letter>A
*>Label>Intro	*>Label>Intro	*>Label>Intro	*>Label>Intro	*>Label>Intro	*>Label>Intro	*>Label>Intro	*>Label>Intro	*>Label>Intro
1I	G:maj	.	.	.	0.348	newline	trombone	1G 1b 1dd
=2	=2	=2	=2	=2	=2	=2	=2	=2
1IV	C:maj	.	.	.	2.39	.	trombone	1C 1e 1g
=3	=3	=3	=3	=3	=3	=3	=3	=3
1I	G:maj	.	.	.	4.432	.	trombone	1G 1b 1dd
=4	=4	=4	=4	=4	=4	=4	=4	=4
2ii7	A:min7	.	.	.	6.474	.	trombone	1A 1cc 1ee 1gg
2V	D:maj	.	.	.	7.495	.	trombone	2D 2f# 2a
=5	=5	=5	=5	=5	=5	=5	=5	=5
2I	G:maj	.	.	.	8.516	newline	trombone	1G 1b 1dd
2IV	C:maj	.	.	.	9.526	.	trombone	2C 2e 2g
=6	=6	=6	=6	=6	=6	=6	=6	=6
2I	G:maj	.	.	.	10.536	.	trombone	1G 1b 1dd
2V	D:1	.	.	.	11.545	.	trombone	2D 2f# 2a
=7	=7	=7	=7	=7	=7	=7	=7	=7
*>Letter>B	*>Letter>B	*>Letter>B	*>Letter>B	*>Letter>B	*>Letter>B	*>Letter>B	*>Letter>B	*>Letter>B
*>Label>Verse	*>Label>Verse	*>Label>Verse	*>Label>Verse	*>Label>Verse	*>Label>Verse	*>Label>Verse	*>Label>Verse	*>Label>Verse
2I	G:maj	.	.	.	12.555	newline	voice	2G 2b 2dd
.	.	We	We	.	.	.	.	.
.	.	hold	hold	.	.	.	.	.
2IV	C:maj	hands	hands	.	13.58	.	voice	2C 2e 2g
=8	=8	=8	=8	=8	=8	=8	=8	=8
2I	G:maj	.	.	.	14.604	.	voice	2G 2b 2dd
.	.	in	in	.	.	.	.	.
.	.	the	the	.	.	.	.	.
2IV	C:maj	mo-	mo-	.	15.629	.	voice	2C 2e 2g
.	.	-vie	-vie	.	.	.	.	.
.	.	show	show	.	.	.	.	.
=9	=9	=9	=9	=9	=9	=9	=9	=9
2I	G:maj	.	.	.	16.654	.	voice	2G 2b 2dd
.	.	So	So	.	.	.	.	.
.	.	they	they	.	.	.	.	.
2IV	C:maj	say	say	.	17.678	.	voice	2C 2e 2g
.	.	that	that	.	.	.	.	.
=10	=10	=10	=10	=10	=10	=10	=10	=10
4I	G:maj	we're	we're	.	18.703	.	voice	4G 4b 4dd
4-VII	F:maj	old	old	.	19.215	.	voice	4F 4a 4cc
4vi	E:min	fa-	fa-	.	19.728	.	voice	4E 4g 4b
4v	D:min	-shioned	-shioned	.	20.24	.	voice	4D 4f 4a
=11	=11	=11	=11	=11	=11	=11	=11	=11
2IV	C:maj	.	.	.	20.752	newline	voice	2C 2e 2g
.	.	Or	Or	.	.	.	.	.
.	.	we	we	.	.	.	.	.
2V	D:maj	stroll	stroll	.	21.779	.	voice	2D 2f# 2a
=12	=12	=12	=12	=12	=12	=12	=12	=12
2IV	C:maj	.	.	.	22.805	.	voice	2C 2e 2g
.	.	be-	be-	.	.	.	.	.
.	.	-neath	-neath	.	.	.	.	.
.	.	the	the	.	.	.	.	.
2V	D:maj	sil-	sil-	.	23.832	.	voice	2D 2f# 2a
.	.	-very	-very	.	.	.	.	.
=13	=13	=13	=13	=13	=13	=13	=13	=13
2I	G:maj	moon	moon	.	24.859	.	voice	2G 2b 2dd
2IV	C:maj	_	_	.	25.885	.	voice	2C 2e 2g
.	.	_	_	.	.	.	.	.
.	.	.	.	.	.	.	.	.
.	.	_	_	.	.	.	.	.
=14	=14	=14	=14	=14	=14	=14	=14	=14
1I	G:maj	_	_	.	26.912	.	voice	1G 1b 1dd
.	.	.	.	.	.	.	.	.
.	.	.	.	.	.	.	.	.
=15	=15	=15	=15	=15	=15	=15	=15	=15
2IV	C:maj	.	.	.	28.965	newline	voice	2C 2e 2g
.	.	And	And	.	.	.	.	.
.	.	we	we	.	.	.	.	.
2V	D:maj	carve	carve	.	29.986	.	voice	2D 2f# 2a
.	.	.	.	.	.	.	.	.
=16	=16	=16	=16	=16	=16	=16	=16	=16
2IV	C:maj	.	.	.	31.008	.	voice	2C 2e 2g
.	.	our	our	.	.	.	.	.
.	.	in-	in-	.	.	.	.	.
2V	D:maj	-i-	-i-	.	32.029	.	voice	2D 2f# 2a
.	.	-tials	-tials	.	.	.	.	.
=17	=17	=17	=17	=17	=17	=17	=17	=17
2I	G:maj	in	in	.	33.05	.	voice	2G 2b 2dd
.	.	the	the	.	.	.	.	.
4VII	F#:maj	old	old	.	34.071	.	voice	4F# 4a# 4cc#
4-VII	F:maj	oak	oak	.	34.582	.	voice	4F 4a 4cc
=18	=18	=18	=18	=18	=18	=18	=18	=18
1VI7	E:7	tree	tree	A	35.092	.	voice	1E 1g# 1b 1dd
.	.	.	.	.	.	.	.	.
=19	=19	=19	=19	=19	=19	=19	=19	=19
1II7	A:7	.	.	.	37.135	newline	voice	1A 1cc# 1ee 1gg
.	.	That's	That's	.	.	.	.	.
.	.	old	old	.	.	.	.	.
.	.	fas-	fas-	.	.	.	.	.
.	.	-hioned,	-hioned,	.	.	.	.	.
=20	=20	=20	=20	=20	=20	=20	=20	=20
1V7	D:7	.	.	.	39.175	.	voice	1D 1f# 1a 1cc
.	.	That's	That's	.	.	.	.	.
.	.	the	the	.	.	.	.	.
.	.	way	way	.	.	.	.	.
.	.	love	love	.	.	.	.	.
.	.	should	should	.	.	.	.	.
=21	=21	=21	=21	=21	=21	=21	=21	=21
2I	G:maj	be	be	A	41.216	.	voice	1G 1b 1dd
2IV	C:maj	.	.	.	42.236	.	voice	2C 2e 2g
=22	=22	=22	=22	=22	=22	=22	=22	=22
2I	G:maj	_	_	.	43.256	.	voice	2G 2b 2dd
.	.	.	.	.	.	.	.	.
2V7	D:7	.	.	.	44.277	.	voice	2D 2f# 2a 2cc
=23	=23	=23	=23	=23	=23	=23	=23	=23
*>Letter>B	*>Letter>B	*>Letter>B	*>Letter>B	*>Letter>B	*>Letter>B	*>Letter>B	*>Letter>B	*>Letter>B
*>Label>Verse	*>Label>Verse	*>Label>Verse	*>Label>Verse	*>Label>Verse	*>Label>Verse	*>Label>Verse	*>Label>Verse	*>Label>Verse
2I	G:maj	.	.	.	45.297	newline	voice	2G 2b 2dd
.	.	We	We	.	.	.	.	.
.	.	en-	en-	.	.	.	.	.
2IV	C:maj	-joy	-joy	.	46.321	.	voice	2C 2e 2g
=24	=24	=24	=24	=24	=24	=24	=24	=24
2I	G:maj	.	.	.	47.345	.	voice	2G 2b 2dd
.	.	sit-	sit-	.	.	.	.	.
.	.	-ting	-ting	.	.	.	.	.
2IV	C:maj	side	side	.	48.37	.	voice	2C 2e 2g
.	.	by	by	.	.	.	.	.
.	.	side	side	.	.	.	.	.
=25	=25	=25	=25	=25	=25	=25	=25	=25
2I	G:maj	.	.	.	49.394	.	voice	2G 2b 2dd
.	.	In	In	.	.	.	.	.
.	.	the	the	.	.	.	.	.
2IV	C:maj	booth	booth	.	50.418	.	voice	2C 2e 2g
.	.	in	in	.	.	.	.	.
.	.	the	the	.	.	.	.	.
=26	=26	=26	=26	=26	=26	=26	=26	=26
4I	G:maj	ice	ice	.	51.442	.	voice	4G 4b 4dd
4-VII	F:maj	cream	cream	.	51.954	.	voice	4F 4a 4cc
4vi	E:min	par-	par-	.	52.466	.	voice	4E 4g 4b
4v	D:min	-lour	-lour	.	52.978	.	voice	4D 4f 4a
=27	=27	=27	=27	=27	=27	=27	=27	=27
2IV	C:maj	.	.	.	53.49	newline	voice	2C 2e 2g
.	.	Where	Where	.	.	.	.	.
.	.	we	we	.	.	.	.	.
2V	D:maj	play	play	.	54.509	.	voice	2D 2f# 2a
=28	=28	=28	=28	=28	=28	=28	=28	=28
2IV	C:maj	.	.	.	55.528	.	voice	2C 2e 2g
.	.	the	the	.	.	.	.	.
.	.	nick-	nick-	.	.	.	.	.
.	.	-el-	-el-	.	.	.	.	.
2V	D:maj	-o-	-o-	.	56.547	.	voice	2D 2f# 2a
.	.	-de-	-de-	.	.	.	.	.
=29	=29	=29	=29	=29	=29	=29	=29	=29
2I	G:maj	-on	-on	.	57.566	.	voice	2G 2b 2dd
2IV	C:maj	_	_	.	58.584	.	voice	2C 2e 2g
.	.	_	_	.	.	.	.	.
.	.	.	.	.	.	.	.	.
.	.	_	_	.	.	.	.	.
=30	=30	=30	=30	=30	=30	=30	=30	=30
1I	G:maj	_	_	.	59.603	.	voice	1G 1b 1dd
.	.	.	.	.	.	.	.	.
.	.	.	.	.	.	.	.	.
=31	=31	=31	=31	=31	=31	=31	=31	=31
2IV	C:maj	.	.	.	61.641	newline	voice	2C 2e 2g
.	.	And	And	.	.	.	.	.
.	.	we	we	.	.	.	.	.
2V	D:maj	dance	dance	.	62.665	.	voice	2D 2f# 2a
.	.	.	.	.	.	.	.	.
=32	=32	=32	=32	=32	=32	=32	=32	=32
2IV	C:maj	.	.	.	63.689	.	voice	2C 2e 2g
.	.	when	when	.	.	.	.	.
.	.	we	we	.	.	.	.	.
2V	D:maj	hear	hear	.	64.714	.	voice	2D 2f# 2a
.	.	our	our	.	.	.	.	.
=33	=33	=33	=33	=33	=33	=33	=33	=33
2I	G:maj	fa-	fa-	.	65.738	.	voice	2G 2b 2dd
.	.	-vourite	-vourite	.	.	.	.	.
4VII	F#:maj	me-	me-	.	66.763	.	voice	4F# 4a# 4cc#
4-VII	F:maj	-lo-	-lo-	.	67.275	.	voice	4F 4a 4cc
=34	=34	=34	=34	=34	=34	=34	=34	=34
1VI7	E:7	-dy	-dy	B	67.787	.	voice	1E 1g# 1b 1dd
.	.	.	.	.	.	.	.	.
=35	=35	=35	=35	=35	=35	=35	=35	=35
1II7	A:7	.	.	.	69.836	newline	voice	1A 1cc# 1ee 1gg
.	.	That's	That's	.	.	.	.	.
.	.	old	old	.	.	.	.	.
.	.	fas-	fas-	.	.	.	.	.
.	.	-hioned,	-hioned,	.	.	.	.	.
=36	=36	=36	=36	=36	=36	=36	=36	=36
1V7	D:7	.	.	.	71.87	.	voice	1D 1f# 1a 1cc
.	.	That's	That's	.	.	.	.	.
.	.	the	the	.	.	.	.	.
.	.	way	way	.	.	.	.	.
.	.	love	love	.	.	.	.	.
.	.	should	should	.	.	.	.	.
=37	=37	=37	=37	=37	=37	=37	=37	=37
2I	G:maj	be	be	B	73.903	.	voice	2G 2b 2dd
2IV	C:maj	_	_	.	74.92	.	voice	2C 2e 2g
.	.	_	_	.	.	.	.	.
.	.	_	_	.	.	.	.	.
=38	=38	=38	=38	=38	=38	=38	=38	=38
1I	G:maj	_	_	.	75.937	.	voice	1G 1b 1dd
.	.	.	.	.	.	.	.	.
.	.	.	.	.	.	.	.	.
=39	=39	=39	=39	=39	=39	=39	=39	=39
*>Letter>C	*>Letter>C	*>Letter>C	*>Letter>C	*>Letter>C	*>Letter>C	*>Letter>C	*>Letter>C	*>Letter>C
*>Label>Bridge	*>Label>Bridge	*>Label>Bridge	*>Label>Bridge	*>Label>Bridge	*>Label>Bridge	*>Label>Bridge	*>Label>Bridge	*>Label>Bridge
2IV	C:maj	.	.	.	77.971	newline	voice	2C 2e 2g
.	.	It's	.	.	.	.	.	.
.	.	a	.	.	.	.	.	.
2V	D:maj	mo-	.	.	78.995	.	voice	2D 2f# 2a
.	.	-dern	.	.	.	.	.	.
=40	=40	=40	=40	=40	=40	=40	=40	=40
2I	G:maj	_	.	.	80.018	.	voice	3...G 3...b 3...dd
.	.	chan-	.	.	.	.	.	.
.	.	-ging	.	.	.	.	.	.
2vi	E:min	.	.	.	81.042	.	voice	4.E 4.g 4.b
.	.	world	.	.	.	.	.	.
=41	=41	=41	=41	=41	=41	=41	=41	=41
2IV	C:maj	Eve-	.	.	82.065	.	voice	2C 2e 2g
.	.	-ry	.	.	.	.	.	.
.	.	thing	.	.	.	.	.	.
.	.	is	.	.	.	.	.	.
2V	D:maj	mo-	.	.	83.089	.	voice	2D 2f# 2a
.	.	_	.	.	.	.	.	.
.	.	-ving	.	.	.	.	.	.
=42	=42	=42	=42	=42	=42	=42	=42	=42
1I	G:maj	fast	.	C	84.112	.	voice	1G 1b 1dd
.	.	_	.	.	.	.	.	.
.	.	_	.	.	.	.	.	.
.	.	_	.	.	.	.	.	.
.	.	_	.	.	.	.	.	.
.	.	.	.	.	.	.	.	.
=43	=43	=43	=43	=43	=43	=43	=43	=43
2IV	C:maj	.	.	.	86.159	newline	voice	2C 2e 2g
.	.	But	.	.	.	.	.	.
.	.	when	.	.	.	.	.	.
.	.	it	.	.	.	.	.	.
2V	D:maj	comes	.	.	87.182	.	voice	2D 2f# 2a
.	.	to	.	.	.	.	.	.
=44	=44	=44	=44	=44	=44	=44	=44	=44
2I	G:maj	love	.	.	88.204	.	voice	2G 2b 2dd
.	.	I	.	.	.	.	.	.
2vi	E:min	like	.	.	89.226	.	voice	2E 2g 2b
.	.	.	.	.	.	.	.	.
=45	=45	=45	=45	=45	=45	=45	=45	=45
1II7	A:7	.	.	.	90.248	.	voice	1A 1cc# 1ee 1gg
.	.	What	.	.	.	.	.	.
.	.	they	.	.	.	.	.	.
.	.	did	.	.	.	.	.	.
.	.	in	.	.	.	.	.	.
.	.	the	.	.	.	.	.	.
=46	=46	=46	=46	=46	=46	=46	=46	=46
1V7	D:7	past	.	C	92.293	.	voice	1D 1f# 1a 1cc
.	.	_	.	.	.	.	.	.
.	.	.	.	.	.	.	.	.
=47	=47	=47	=47	=47	=47	=47	=47	=47
*>Letter>B	*>Letter>B	*>Letter>B	*>Letter>B	*>Letter>B	*>Letter>B	*>Letter>B	*>Letter>B	*>Letter>B
*>Label>Verse	*>Label>Verse	*>Label>Verse	*>Label>Verse	*>Label>Verse	*>Label>Verse	*>Label>Verse	*>Label>Verse	*>Label>Verse
2I	G:maj	.	.	.	94.337	newline	voice	2G 2b 2dd
.	.	I'm	I'm	.	.	.	.	.
.	.	the	the	.	.	.	.	.
2IV	C:maj	kind	kind	.	95.357	.	voice	2C 2e 2g
=48	=48	=48	=48	=48	=48	=48	=48	=48
2I	G:maj	.	.	.	96.377	.	voice	2G 2b 2dd
.	.	who	who	.	.	.	.	.
.	.	loves	loves	.	.	.	.	.
2IV	C:maj	on-	on-	.	97.396	.	voice	2C 2e 2g
.	.	-ly	-ly	.	.	.	.	.
.	.	one	one	.	.	.	.	.
=49	=49	=49	=49	=49	=49	=49	=49	=49
2I	G:maj	.	.	.	98.416	.	voice	2G 2b 2dd
.	.	So	So	.	.	.	.	.
.	.	the	the	.	.	.	.	.
2IV	C:maj	boys	boys	.	99.436	.	voice	2C 2e 2g
.	.	say	say	.	.	.	.	.
=50	=50	=50	=50	=50	=50	=50	=50	=50
4I	G:maj	I'm	I'm	.	100.455	.	voice	4G 4b 4dd
4-VII	F:maj	old	old	.	100.965	.	voice	4F 4a 4cc
4vi	E:min	fa-	fa-	.	101.475	.	voice	4E 4g 4b
4v	D:min	-shioned	-shioned	.	101.985	.	voice	4D 4f 4a
=51	=51	=51	=51	=51	=51	=51	=51	=51
2IV	C:maj	.	.	.	102.495	newline	voice	2C 2e 2g
.	.	Let	Let	.	.	.	.	.
.	.	them	them	.	.	.	.	.
2V	D:maj	laugh,	laugh,	.	103.517	.	voice	2D 2f# 2a
=52	=52	=52	=52	=52	=52	=52	=52	=52
2IV	C:maj	.	.	.	104.539	.	voice	2C 2e 2g
.	.	ho-	ho-	.	.	.	.	.
.	.	-ney	-ney	.	.	.	.	.
2V	D:maj	I	I	.	105.561	.	voice	2D 2f# 2a
.	.	don't	don't	.	.	.	.	.
=53	=53	=53	=53	=53	=53	=53	=53	=53
2I	G:maj	mind	mind	.	106.582	.	voice	2G 2b 2dd
2IV	C:maj	_	_	.	107.604	.	voice	2C 2e 2g
.	.	_	_	.	.	.	.	.
.	.	.	.	.	.	.	.	.
.	.	_	_	.	.	.	.	.
=54	=54	=54	=54	=54	=54	=54	=54	=54
1I	G:maj	_	_	.	108.626	.	voice	1G 1b 1dd
.	.	.	.	.	.	.	.	.
.	.	.	.	.	.	.	.	.
=55	=55	=55	=55	=55	=55	=55	=55	=55
2IV	C:maj	.	.	.	110.67	newline	voice	2C 2e 2g
.	.	I've	I've	.	.	.	.	.
.	.	made	made	.	.	.	.	.
2V	D:maj	plans	plans	.	111.689	.	voice	2D 2f# 2a
.	.	.	.	.	.	.	.	.
=56	=56	=56	=56	=56	=56	=56	=56	=56
2IV	C:maj	.	.	.	112.708	.	voice	2C 2e 2g
.	.	for	for	.	.	.	.	.
.	.	a	a	.	.	.	.	.
2V	D:maj	wed-	wed-	.	113.727	.	voice	2D 2f# 2a
.	.	-ding	-ding	.	.	.	.	.
=57	=57	=57	=57	=57	=57	=57	=57	=57
2I	G:maj	day	day	.	114.745	.	voice	2G 2b 2dd
.	.	for	for	.	.	.	.	.
4VII	F#:maj	you	you	.	115.764	.	voice	4F# 4a# 4cc#
4-VII	F:maj	and	and	.	116.274	.	voice	4F 4a 4cc
=58	=58	=58	=58	=58	=58	=58	=58	=58
1VI7	E:7	me	me	D	116.783	.	voice	1E 1g# 1b 1dd
.	.	.	.	.	.	.	.	.
=59	=59	=59	=59	=59	=59	=59	=59	=59
1II7	A:7	.	.	.	118.821	newline	voice	1A 1cc# 1ee 1gg
.	.	That's	That's	.	.	.	.	.
.	.	old	old	.	.	.	.	.
.	.	fas-	fas-	.	.	.	.	.
.	.	-hioned,	-hioned,	.	.	.	.	.
=60	=60	=60	=60	=60	=60	=60	=60	=60
1V7	D:7	.	.	.	120.847	.	voice	1D 1f# 1a 1cc
.	.	That's	That's	.	.	.	.	.
.	.	the	the	.	.	.	.	.
.	.	way	way	.	.	.	.	.
.	.	love	love	.	.	.	.	.
.	.	should	should	.	.	.	.	.
=61	=61	=61	=61	=61	=61	=61	=61	=61
2I	G:maj	be	be	D	122.873	.	voice	2G 2b 2dd
2IV	C:maj	_	_	.	123.886	.	voice	2C 2e 2g
.	.	_	_	.	.	.	.	.
.	.	_	_	.	.	.	.	.
=62	=62	=62	=62	=62	=62	=62	=62	=62
1I	G:maj	_	_	.	124.899	.	voice	1G 1b 1dd
.	.	.	.	.	.	.	.	.
.	.	.	.	.	.	.	.	.
=63	=63	=63	=63	=63	=63	=63	=63	=63
*>Letter>A	*>Letter>A	*>Letter>A	*>Letter>A	*>Letter>A	*>Letter>A	*>Letter>A	*>Letter>A	*>Letter>A
*>Label>Coda	*>Label>Coda	*>Label>Coda	*>Label>Coda	*>Label>Coda	*>Label>Coda	*>Label>Coda	*>Label>Coda	*>Label>Coda
1I	G:maj	.	.	.	126.925	newline	trombone	1G 1b 1dd
=64	=64	=64	=64	=64	=64	=64	=64	=64
1IV	C:maj	.	.	.	128.913	.	trombone	1C 1e 1g
=65	=65	=65	=65	=65	=65	=65	=65	=65
1I	G:maj	.	.	.	130.9	.	trombone	1G 1b 1dd
=66	=66	=66	=66	=66	=66	=66	=66	=66
2ii7	A:min7	.	.	.	132.887	.	trombone	1A 1cc 1ee 1gg
2V	D:maj	.	.	.	133.881	.	trombone	2D 2f# 2a
=67	=67	=67	=67	=67	=67	=67	=67	=67
1I	G:maj	.	.	.	134.875	newline	guitar	1G 1b 1dd
=68	=68	=68	=68	=68	=68	=68	=68	=68
1I	G:maj	.	.	.	136.842	.	guitar	1G 1b 1dd
1r;	N	.	.	.	140.04	.	r	1r;
1r;	N	.	.	.	142.472	.	r	1r;
*-	*-	*-	*-	*-	*-	*-	*-	*-
!!!BillboardChartDate: 1962/06/30
!!!BillboardPeak: 9
!!!BillboardWeeksOnChart: 9
!!!COC: The Everly Brothers
!!!ENC: Nathaniel Condit-Schultz
!!!EST: Awating manual error checking and editing.
!!!OTL: That's Old Fashioned (That's The Way Love Should Be)
!!!RDF**harte: Chris Harte's syntax, used by MIREX
!!!RDF**harmony: **recip + pitch class of root + harmonic quality
!!!RDF**leadinstrument: original McGill primary instrumentation annotation
!!!RDF**phrase: newline = linebreak in original McGill transcription
!!!RDF**timestamp: McGill audio timestamp in seconds
!!!RDT: 2017/01/12/
!!!SampleActualRank: 12
!!!SampleID#: 1248
!!!SampleTargetRank: 10
!!!MBID: edef9d5d-dc95-4f97-bad8-4b52377ec4a3
